src/icons/main-minimize.svg

<svg enable-background="new 0 0 14 14" viewBox="0 0 14 14" xmlns="http://www.w3.org/2000/svg"><path d="m5.6 7.7h-3.5c-.4 0-.7.3-.7.7s.3.7.7.7h1.8l-3.7 3.7c-.1.1-.2.3-.2.5 0 .4.3.7.7.7.2 0 .4-.1.5-.2l3.7-3.7v1.8c0 .4.3.7.7.7s.7-.3.7-.7v-3.5c0-.4-.3-.7-.7-.7zm8.4-7c0-.4-.3-.7-.7-.7-.2 0-.4.1-.5.2l-3.7 3.7v-1.8c0-.4-.3-.7-.7-.7s-.7.3-.7.7v3.5c0 .4.3.7.7.7h3.5c.4 0 .7-.3.7-.7s-.3-.7-.7-.7h-1.8l3.7-3.7c.1-.1.2-.3.2-.5z" fill="#4d5969"/></svg>

<?xml version="1.0" encoding="utf-8"?>
<!-- Generator: Adobe Illustrator 20.1.0, SVG Export Plug-In . SVG Version: 6.00 Build 0)  -->
<svg version="1.1" id="Layer_1" xmlns="http://www.w3.org/2000/svg" xmlns:xlink="http://www.w3.org/1999/xlink" x="0px" y="0px"
	 viewBox="0 0 14 14" style="enable-background:new 0 0 14 14;" xml:space="preserve">
<style type="text/css">
	.st0{fill:#4D5969;}
</style>
<title>HDL/Icon/Standard/minimize</title>
<desc>Created with Sketch.</desc>
<g id="Colors">
	<g id="Main-Icons" transform="translate(-119.000000, -500.000000)">
		<g id="Minimize" transform="translate(98.000000, 482.000000)">
			<g id="HDL_x2F_Icon_x2F_Standard_x2F_minimize" transform="translate(21.000000, 18.000000)">
				<path id="Shape" class="st0" d="M5.6,7.7H2.1C1.7,7.7,1.4,8,1.4,8.4c0,0.4,0.3,0.7,0.7,0.7h1.8l-3.7,3.7C0.1,12.9,0,13.1,0,13.3
					C0,13.7,0.3,14,0.7,14c0.2,0,0.4-0.1,0.5-0.2l3.7-3.7v1.8c0,0.4,0.3,0.7,0.7,0.7c0.4,0,0.7-0.3,0.7-0.7V8.4C6.3,8,6,7.7,5.6,7.7
					z M14,0.7C14,0.3,13.7,0,13.3,0c-0.2,0-0.4,0.1-0.5,0.2L9.1,3.9V2.1c0-0.4-0.3-0.7-0.7-0.7C8,1.4,7.7,1.7,7.7,2.1v3.5
					C7.7,6,8,6.3,8.4,6.3h3.5c0.4,0,0.7-0.3,0.7-0.7c0-0.4-0.3-0.7-0.7-0.7h-1.8l3.7-3.7C13.9,1.1,14,0.9,14,0.7z"/>
			</g>
		</g>
	</g>
</g>
</svg>
